X:445
T:Money Musk. RH.446
R:strathspey
S:Rev.R.Harrison’s MS,c1815,Cumbria
O:England
A:Temple Sowerby,Cumbria
Z:vmp.Simon Wilson. Review PJH, 2008.
M:C
L:1/8
Q:2/4=70
K:G
e|d>GB>G d>Gc>e|d>GB>G AB/A/ ce|\
d>GB>G B/c/dg2|e>cA>d BGG:|!
e/f/|g>dB>g d>gB>g|g>dc>g B>ge>g|\
g>de>g d>gB>g|e>cA>d BGG e/f/|!
g>dB>g d>gB>g|g>dc>g B>gA>g|\
g>dB>g d>gB>g|B>gA>d BGG|]

